X:189
T:Judy & Jim's Wedding
M:3/4
L:1/8
R:Waltz
K:D
| "D"D3E FG|"Em7"A2 d2c2|"F#m7"A2 d2 fd|"G"G3 Ade|\
"D"d3c BA|"Bm"B2 A2 D2| "G"FG FE DE|"A7"D2 C2 A,2|
"D"D3E FG|"Em7"A2 d2c2|"F#m7"A2 d2 fd|"G"G3 Ade|\
"D"f3e dc|"G"d2 c2 B2| "A7"A2 d3c|"D"d4 de|
"D"f3e df|"A7"e2 d2 c2| "Bm"d3e dc|"G"c2 B2 FG|\
"D"A2 d2A2|"Em7"G2 d2G2|"D/F#"F2 d2 F2| "A7"E3 Ade|
"Bm"f3e df|"Em7"e2 d2 e2| "F#m7"fa3 ef|"G"g3 fde|\
"D"f3e dc|"G"d2 c2 B2| "A7"A2 d3c|"D"d6|
